X: 1
T: This little light of mine
M: 4/4
L: 1/8
R: Traditional spirital
K: Emin
"G" G2 GG G2 A2 | G8| B2 BBB A3 | "G7" G8|
w: This litt-le light of mine I'm gon-na let it shine
"C" E2 GG G2 A2 | G8| G2 GGG E3 | "G" D8 |
w: This litt-le light of mine I'm gon-na let it shine
"G" D2 GG G2 A2 | G8| "B7" B2 BBB A3 | "Em" G4 G A3|
w: This litt-le light of mine I'm gon-na let it shine. Let it
"G" B4 B B3 | "D7" A4 B A3| "G" (G8|G2) z2 z4 ||
w: shine, let it shine, let it shine.